; generated by Slic3r 1.2.9 on 2018-05-18 at 16:05:13

; external perimeters extrusion width = 0.60mm
; perimeters extrusion width = 1.01mm
; infill extrusion width = 1.01mm
; solid infill extrusion width = 1.01mm
; top infill extrusion width = 1.01mm

M107
M190 S70 ; set bed temperature
M104 S230 ; set temperature
G28 ; home all axes
G1 Z5 F5000 ; lift nozzle

M109 S230 ; wait for temperature to be reached
G21 ; set units to millimeters
G90 ; use absolute coordinates
M82 ; use absolute distances for extrusion
G92 E0
G1 Z0.350 F7800.000
G1 E-2.00000 F2400.00000
G92 E0
G1 X253.772 Y122.741 F7800.000
G1 E2.00000 F2400.00000
G1 X254.915 Y120.753 E2.20854 F1800.000
G1 X256.668 Y119.273 E2.41708
G1 X258.820 Y118.481 E2.62563
G1 X260.000 Y118.375 E2.73333
G1 X280.000 Y118.375 E4.55192
G1 X282.259 Y118.772 E4.76047
G1 X284.247 Y119.915 E4.96901 F1800.000
G1 X285.726 Y121.668 E5.17755
G1 X286.519 Y123.820 E5.38609
G1 X286.625 Y125.000 E5.49380
G1 X286.625 Y145.000 E7.31239
G1 X286.228 Y147.258 E7.52094
G1 X285.084 Y149.246 E7.72948
G1 X283.332 Y150.726 E7.93802
G1 X281.180 Y151.518 E8.14656
G1 X280.000 Y151.624 E8.25427
G1 X260.000 Y151.624 E10.07286
G1 X257.741 Y151.227 E10.28141
G1 X255.753 Y150.084 E10.48995
G1 X254.274 Y148.331 E10.69849
G1 X253.481 Y146.179 E10.90703
G1 X253.375 Y145.000 E11.01474
G1 X253.375 Y124.999 E12.83334
G1 X253.756 Y122.829 E13.03370
G1 E11.03370 F2400.00000
G92 E0
G1 X278.400 Y143.400 F7800.000
G1 E2.00000 F2400.00000
G1 X261.600 Y143.400 E3.52766 F1800.000
G1 X261.600 Y126.599 E5.05531
G1 X278.400 Y126.599 E6.58297
G1 X278.400 Y143.310 E8.10245
G1 X279.025 Y144.025 F7800.000
G1 X260.975 Y144.025 E9.74374 F1800.000
G1 X260.975 Y125.974 E11.38504
G1 X279.025 Y125.974 E13.02634
G1 X279.025 Y143.935 E14.65946
G1 X279.650 Y144.650 F7800.000
G1 X260.350 Y144.650 E16.41440 F1800.000
G1 X260.350 Y125.350 E18.16934
G1 X279.650 Y125.350 E19.92428
G1 X279.650 Y144.560 E21.67104
G1 X279.130 Y144.350 F7800.000
G1 E19.67104 F2400.00000
G92 E0
G1 X278.021 Y127.283 F7800.000
G1 E2.00000 F2400.00000
G1 X277.716 Y126.978 E2.03993 F1800.000
G1 X276.817 Y126.978 E2.12315
G1 X278.021 Y128.182 E2.28077
G1 X278.021 Y129.082 E2.36398
G1 X275.918 Y126.978 E2.63929
G1 X275.018 Y126.978 E2.72251
G1 X278.021 Y129.981 E3.11550
G1 X278.021 Y130.880 E3.19872
G1 X274.119 Y126.978 E3.70941
G1 X273.220 Y126.978 E3.79262
G1 X278.021 Y131.780 E4.42100
G1 X278.021 Y132.679 E4.50422
G1 X272.320 Y126.978 E5.25028
G1 X271.421 Y126.978 E5.33350
G1 X278.021 Y133.578 E6.19725
G1 X278.021 Y134.478 E6.28046
G1 X270.522 Y126.978 E7.26190
G1 X269.622 Y126.978 E7.34512
G1 X278.021 Y135.377 E8.44425
G1 X278.021 Y136.276 E8.52747
G1 X268.723 Y126.978 E9.74429
G1 X267.824 Y126.978 E9.82750
G1 X278.021 Y137.176 E11.16201
G1 X278.021 Y138.075 E11.24523
G1 X266.924 Y126.978 E12.69742
G1 X266.025 Y126.978 E12.78064
G1 X278.021 Y138.974 E14.35052
G1 X278.021 Y139.874 E14.43374
G1 X265.126 Y126.978 E16.12131
G1 X264.226 Y126.978 E16.20453
G1 X278.021 Y140.773 E18.00979
G1 X278.021 Y141.672 E18.09301
G1 X263.327 Y126.978 E20.01596
G1 X262.428 Y126.978 E20.09918
G1 X278.021 Y142.571 E22.13982
G1 X277.572 Y143.021 E22.19866
G1 X261.978 Y127.428 E24.23930
G1 X261.978 Y128.327 E24.32252
G1 X276.672 Y143.021 E26.24546
G1 X275.773 Y143.021 E26.32868
G1 X261.978 Y129.226 E28.13394
G1 X261.978 Y130.126 E28.21716
G1 X274.874 Y143.021 E29.90473
G1 X273.974 Y143.021 E29.98795
G1 X261.978 Y131.025 E31.55783
G1 X261.978 Y131.924 E31.64104
G1 X273.075 Y143.021 E33.09324
G1 X272.176 Y143.021 E33.17645
G1 X261.978 Y132.823 E34.51096
G1 X261.978 Y133.723 E34.59418
G1 X271.276 Y143.021 E35.81099
G1 X270.377 Y143.021 E35.89421
G1 X261.978 Y134.622 E36.99333
G1 X261.978 Y135.521 E37.07655
G1 X269.478 Y143.021 E38.05799
G1 X268.578 Y143.021 E38.14121
G1 X261.978 Y136.421 E39.00496
G1 X261.978 Y137.320 E39.08817
G1 X267.679 Y143.021 E39.83423
G1 X266.780 Y143.021 E39.91745
G1 X261.978 Y138.219 E40.54582
G1 X261.978 Y139.119 E40.62904
G1 X265.881 Y143.021 E41.13972
G1 X264.981 Y143.021 E41.22294
G1 X261.978 Y140.018 E41.61593
G1 X261.978 Y140.917 E41.69915
G1 X264.082 Y143.021 E41.97445
G1 X263.183 Y143.021 E42.05767
G1 X261.978 Y141.817 E42.21529
G1 X261.978 Y142.716 E42.29851
G1 X262.283 Y143.021 E42.33843
G1 E40.33843 F2400.00000
G92 E0
M104 S0 ; turn off temperature
G28 X0  ; home X axis
M84     ; disable motors

; filament used = 71.0mm (0.2cm3)

; avoid_crossing_perimeters = 0
; bed_shape = 295.001x-0.01001,540.01x-0.01001,538.859x24.9033,538.86x24.9034,538.858x24.9134,538.858x24.9235,538.857x24.9234,535.414x49.6043,535.415x49.6045,535.413x49.6142,535.411x49.6242,535.41x49.624,529.705x73.8819,529.706x73.8822,529.703x73.8917,529.7x73.9016,529.699x73.9014,521.78x97.5293,521.781x97.5296,521.777x97.5389,521.774x97.5484,521.773x97.5481,521.773x97.5484,511.707x120.345,511.708x120.345,511.703x120.354,511.699x120.363,511.698x120.363,499.572x142.133,499.573x142.134,499.567x142.142,499.562x142.151,499.561x142.15,485.478x162.709,485.479x162.71,485.473x162.717,485.467x162.726,485.466x162.725,469.546x181.897,469.547x181.897,469.54x181.905,469.533x181.912,469.533x181.912,451.912x199.533,451.912x199.533,451.905x199.54,451.897x199.547,451.897x199.546,432.725x215.466,432.726x215.467,432.717x215.473,432.71x215.479,432.709x215.478,412.15x229.561,412.151x229.562,412.142x229.567,412.134x229.573,412.133x229.572,390.363x241.698,390.363x241.699,390.354x241.703,390.345x241.708,390.345x241.707,367.548x251.773,367.549x251.774,367.539x251.777,367.53x251.781,367.529x251.78,343.901x259.699,343.902x259.7,343.892x259.703,343.882x259.706,343.882x259.706,343.882x259.705,319.624x265.41,319.624x265.411,319.614x265.413,319.604x265.415,319.604x265.414,294.923x268.857,294.923x268.858,294.913x268.858,294.903x268.86,294.903x268.859,270.01x270.01,270.01x270.01,270x270.01,269.99x270.01,269.99x270.01,245.097x268.859,245.097x268.86,245.087x268.858,245.077x268.858,245.077x268.857,220.396x265.414,220.396x265.415,220.386x265.413,220.376x265.411,220.376x265.41,196.118x259.705,196.118x259.706,196.108x259.703,196.098x259.7,196.099x259.699,172.471x251.78,172.47x251.781,172.461x251.777,172.452x251.774,172.452x251.774,172.452x251.773,149.655x241.707,149.655x241.708,149.646x241.703,149.637x241.699,149.637x241.698,127.867x229.572,127.866x229.573,127.858x229.567,127.849x229.562,127.85x229.561,107.291x215.478,107.29x215.479,107.283x215.473,107.274x215.467,107.275x215.466,88.1031x199.546,88.1025x199.547,88.0954x199.54,88.0877x199.533,88.0884x199.533,70.4673x181.912,70.4667x181.912,70.4602x181.905,70.453x181.897,70.4537x181.897,54.5338x162.725,54.533x162.726,54.5274x162.717,54.5209x162.71,54.5217x162.709,40.4386x142.15,40.4378x142.151,40.4329x142.142,40.4271x142.134,40.4279x142.133,28.3019x120.363,28.3011x120.363,28.2969x120.354,28.2921x120.345,28.2929x120.345,18.2272x97.5481,18.2263x97.5484,18.2231x97.5389,18.2191x97.5298,18.219x97.5296,18.2199x97.5293,10.3007x73.9014,10.2998x73.9016,10.2974x73.8917,10.2942x73.8822,10.2951x73.8819,4.58972x49.624,4.58881x49.6242,4.58743x49.6142,4.58514x49.6045,4.58604x49.6043,1.14319x24.9234,1.14226x24.9235,1.14179x24.9134,1.1404x24.9034,1.14132x24.9033,-0.010483x-0.01001,244.999x-0.01001,245.009x-0.010994,245.009x-0.01001,245.01x-0.01001,245.01x-0.000667,245.351x4.11321,246.364x8.11417,246.368x8.12203,246.368x8.12208,246.369x8.12449,248.019x11.886,248.019x11.886,248.022x11.8939,250.279x15.3491,253.075x18.3857,256.332x20.9208,259.962x22.8851,259.97x22.8878,259.97x22.8879,263.857x24.2224,263.857x24.2224,263.865x24.2253,267.936x24.9046,272.064x24.9046,276.135x24.2253,276.143x24.2224,276.143x24.2224,278.267x23.4934,280.03x22.8879,280.03x22.8878,280.038x22.8851,283.668x20.9208,286.925x18.3857,289.721x15.3491,291.978x11.8939,291.981x11.886,291.981x11.886,293.632x8.12208,293.632x8.12203,293.636x8.11417,294.649x4.11321,294.99x-0.000667,294.991x-0.01001,294.991x-0.01001,294.991x-0.010994
; bed_temperature = 70
; before_layer_gcode = 
; bridge_acceleration = 0
; bridge_fan_speed = 100
; brim_width = 0
; complete_objects = 0
; cooling = 1
; default_acceleration = 0
; disable_fan_first_layers = 3
; duplicate_distance = 6
; end_gcode = M104 S0 ; turn off temperature\nG28 X0  ; home X axis\nM84     ; disable motors\n
; extruder_clearance_height = 20
; extruder_clearance_radius = 20
; extruder_offset = 0x0
; extrusion_axis = E
; extrusion_multiplier = 1
; fan_always_on = 0
; fan_below_layer_time = 60
; filament_colour = #FFFFFF
; filament_diameter = 1.75
; first_layer_acceleration = 0
; first_layer_bed_temperature = 70
; first_layer_extrusion_width = 200%
; first_layer_speed = 30
; first_layer_temperature = 230
; gcode_arcs = 0
; gcode_comments = 0
; gcode_flavor = reprap
; infill_acceleration = 0
; infill_first = 0
; layer_gcode = 
; max_fan_speed = 100
; max_print_speed = 80
; max_volumetric_speed = 0
; min_fan_speed = 35
; min_print_speed = 10
; min_skirt_length = 0
; notes = 
; nozzle_diameter = 0.6
; only_retract_when_crossing_perimeters = 1
; ooze_prevention = 0
; output_filename_format = [input_filename_base].gcode
; perimeter_acceleration = 0
; post_process = 
; pressure_advance = 0
; resolution = 0
; retract_before_travel = 2
; retract_layer_change = 0
; retract_length = 2
; retract_length_toolchange = 10
; retract_lift = 0
; retract_restart_extra = 0
; retract_restart_extra_toolchange = 0
; retract_speed = 40
; skirt_distance = 6
; skirt_height = 1
; skirts = 1
; slowdown_below_layer_time = 5
; spiral_vase = 0
; standby_temperature_delta = -5
; start_gcode = G28 ; home all axes\nG1 Z5 F5000 ; lift nozzle\n
; temperature = 230
; threads = 2
; toolchange_gcode = 
; travel_speed = 130
; use_firmware_retraction = 0
; use_relative_e_distances = 0
; use_volumetric_e = 0
; vibration_limit = 0
; wipe = 0
; z_offset = 0
; dont_support_bridges = 1
; extrusion_width = 0
; first_layer_height = 0.35
; infill_only_where_needed = 0
; interface_shells = 0
; layer_height = 0.3
; raft_layers = 0
; seam_position = aligned
; support_material = 0
; support_material_angle = 0
; support_material_contact_distance = 0.2
; support_material_enforce_layers = 0
; support_material_extruder = 1
; support_material_extrusion_width = 0
; support_material_interface_extruder = 1
; support_material_interface_layers = 3
; support_material_interface_spacing = 0
; support_material_interface_speed = 100%
; support_material_pattern = pillars
; support_material_spacing = 2.5
; support_material_speed = 60
; support_material_threshold = 0
; xy_size_compensation = 0
; bottom_solid_layers = 3
; bridge_flow_ratio = 1
; bridge_speed = 60
; external_fill_pattern = rectilinear
; external_perimeter_extrusion_width = 0
; external_perimeter_speed = 50%
; external_perimeters_first = 0
; extra_perimeters = 1
; fill_angle = 45
; fill_density = 20%
; fill_pattern = honeycomb
; gap_fill_speed = 20
; infill_every_layers = 1
; infill_extruder = 1
; infill_extrusion_width = 0
; infill_overlap = 15%
; infill_speed = 80
; overhangs = 1
; perimeter_extruder = 1
; perimeter_extrusion_width = 0
; perimeter_speed = 60
; perimeters = 3
; small_perimeter_speed = 15
; solid_infill_below_area = 70
; solid_infill_every_layers = 0
; solid_infill_extruder = 1
; solid_infill_extrusion_width = 0
; solid_infill_speed = 20
; thin_walls = 1
; top_infill_extrusion_width = 0
; top_solid_infill_speed = 15
; top_solid_layers = 3
